X: 1
T: Balquhidder Lasses  v.1
P: piffero primo b0073
O: safd 153
F: http://ancients.sudburymuster.org/mus/acn/pdf/fyf02F.pdf
F: http://ancients.sudburymuster.org/mus/acn/pdf/fyf03F.pdf
Z: 2019 John Chambers <jc:trillian.mit.edu>
M: 2/4
L: 1/16
K: Em
BA |\
G2FG (EF)GA | B2B2 e3e | d2A2 ABAG | FEFG A2BA |\
G2FG EFGA | B2B2 e3e | d2A2 BAGF | E4- E2 :|
B2 |\
e2ef e2B2 | efgf e2B^c | d2de dAFA | (DE)FG A2B2 |\
e2ef e2B2 | efgf e2B^c | d2A2 BAGF | E4- E2 ||
B2 |\
e2ef e2B2 | efgf e2B^c | d2de dAFA | DEFG A2BA |\
G2FG EFGA | B2B2 e3e | d2A2 BAGF | E4 z2 |]


